X:95
T:RVW2/2/95 Banks Of The Nile
C:Mrs. Verrall, Horsham, Susses, 24 May 1904
L:1/8
Q:1/4=120
M:6/8
I:linebreak $
K:G
"^(" B2 c | d2 e c2 d | (B2 A) G2 D | G2 G A2 F | G3- G2 G | B2 A B2 c |$ d2 e =f2 e | c2 B (AB)c | 
w: Heark I|hear the drums a-|beat- * ing and|love I must a-|way. _ I|hear those bu- gles|call- [ing me,] come|love, I must _ a-|
d3- d2 G | B2 A B2 c | (d2 e) =f2 e |$ c2 B ABc | d3- d2 B | d2 e c2 d | B2 A G2 D | G3 A2 F | 
w: way. _ We're|or- de- rï¿½d from|Ports- * mouth. It|is for ma- ny a|mile _ To|fight the blacks and|hea- thens on the|banks of the|
G3 |] 
w: Nile.|



